!!!OTL: Der Schlemmer.
!!!OTL-incipit: IN HOLLAND UND BRABANT DA SIND VIEL SCHOENE STAEDT
!!!ARE: Europa, Mitteleuropa, Deutschland, Rhein
!!!SCT: Z1337
!!!TXL: @@DE
!!!YEM: Copyright 1995, estate of Helmut Schaffrath.
**kern	**text
*ICvox	*
*M4/4	*
*met(c)	*
*k[f#]	*
*G:	*
!LO:TX:a:t=Vom Rheine.	!
{4d	Jn
=1	=1
2g	Hol-
4f#	-land
4g	und
=2	=2
2a	Bra-
4g	-band
4a	da
=3	=3
4b/	ſind
4dd/	viel
4cc/	ſchö-
4a	-ne
=4	=4
2g	Städt',
4r}	.
{8gL	wohl
8aJ	.
=5	=5
4b/	auf
4b/	die
4b/	Frankfur-
8a/	.
8b/	-ter
=6	=6
(>4.cc/	Wei-
8dd/)	.
4cc/	-ſe,
8cc/L	da
8bJ	.
=7	=7
4a	tra-
8a	-gen
8a	ſie
4a	ſpiʒ-
4b/	-ʒe
=8	=8
(>4.dd/	Schu-
8ee/)	.
4dd/}	-he,
{4dd/	die
=9	=9
2g	ſind,
4r	.
4b/	die
=10	=10
2a	ſind,
4r	.
8gL	die
8aJ	.
=11	=11
4b/	ſind
4b/	ſo
8dd/L	hübſch
8ccJ	.
4a	und
=12	=12
2g	nett!
4r}	.
==	==
!!!AGN: Zech -, Schalks - Lied
!!!ONB: ESAC (Essen Associative Code) Database: ZUCCAL
!!!AMT: simple quadruple
!!!AIN: vox
!!!EED: Helmut Schaffrath
!!!EEV: 1.0
!!!GTL: VIII. Zech- und Schalks-Lieder.
!!!URL-scan: https://www.digitale-sammlungen.de/de/view/bsb11160573?page=618
!!!ENC: Anna Maria Matuszewska
!!!EEV: 2025/02/07
*-	*-
